X: 1590
T: Jerry Daly's Hornpipe
M:C|
L:1/8
R:Hornpipe
N:"1st Setting."
B:O'Neill's 1590
N:"Collected by F.O'Neill."
Z:Transcribed by Michael D. Long, 9/29/98
K:A
(ed)|cABG A2 (BA)|GEDE G2 (cd)|(3(efg) (fa) gedc|B2 GG G2 (ed)|\
cABG A2 (BA)|GEDE G2 (cd)|(3(efg) (fa) gedB|A2 AA A2:|
|:(3(efg)|agab agef|gedB G2 (ef)|gfga gfef|gfdB GABG|\
EAAG AcBA|GFEF GABd|(3(efg) (fa) gedB|A2 AA A2:|


